X:63
T: Die Rheinbraut
N: Q0047
O: Mitteleuropa, Deutschland (DDR) , Brandenburg, Oranienburg,
R: Ballade, Braut - Werbung, Todesahnung, Tod
M: 3/4
L: 1/8
K: G
DGA | _BBA2(3GGG | d3
dcA | d2c2_Bc | A3
AAA | d2ccd_B | A3
_BGA | _BdcBAB | G3

@@@ Tune index: 799
